X:98
T:Eliz'h Canning. JJo.098
B:J.Johnson Choice Collection Vol 8 1758
Z:vmp.Simon Wilson 2013 www.village-music-project.org.uk
Z:Dance added by John Chambers 2017
M:C|
L:1/8
%Q:1/2=80
N:Elizabeth Canning was the subject of one of the most sensational trials of the 1750s
K:A
   e/d/ |\
ceAa(f2e)a | dfce dB- Be/d/ |\
ceAa(f2e)a | ceBd cA-A :|
|: e/d/ |\
c2(d/c/B/A/) GB-Bd | cAac dB-Be/d/ |\
c2(d/c/B/A/) GB-Bd | ceae cA-A :|
%%begintext align
%% First Cu swing hands round and
%% cast off .| Lead thro' the 3d Cu. cast
%% up and foot it :| Right hands across
%% with the 3d Cu. :||. Right hands and
%% Left with the 2d Cu. :||:
%%endtext
